X:1
T:Sawston, 88.88.88
T:Sawston, 88.88.88
T:Traditional Tune
T:Public Domain Courtesy of the Cyber Hymnal™
C:Traditional Tune
Z:Public Domain
Z:Courtesy of the Cyber Hymnal™
%%score ( 1 2 ) ( 3 4 )
L:1/8
Q:1/4=100
M:4/4
K:D
V:1 treble 
V:2 treble 
V:3 bass 
V:4 bass 
V:1
 DF | A3 z A Ad FB | [EA]3 [EG] [CE]2 [EB]2 | A3 [DF] [DA][DG] [CE][CF] | D6 [EA]2 | %5
 [DF]3 [DE] [CE][CB][DA][EG] | [EG]2 [DF]4 [DA]2 | [DF]3 [DE] [CE][CB][DA][EG] | G2 F4 DF | %9
 A3 z A AdF[FB] | [EA]3 [EG] [CE]2 [EB]2 | A3 [DF] [DA][DG][CE][CF] | D6 [DB]2 | %13
 [DA]3 [DF] [DA][DG][CE][CF] | D6 |] %15
V:2
 D2 | D2 D2 D2 D2 x | x8 | A3 x5 | D6 x2 | x8 | x8 | x8 | D6 D2 | D2 C2 D2 F x2 | x8 | A3 x5 | %12
 D6 x2 | x8 | D6 |] %15
V:3
 F,A, | [D,F,]2 [E,G,]2 [F,A,]2 A,F, x | [C,A,]3 [C,A,] [A,,A,]2 [G,C]2 | %3
 [F,D]3 [D,A,] [G,,B,][G,,B,] [A,,G,][G,,A,] | [D,F,]6 [C,A,]2 | %5
 [D,A,]3 [G,,B,] [A,,A,][A,,G,][B,,F,][C,E,] | [D,A,]6 [F,A,]2 | %7
 A,2 [^G,B,]2 A, [A,,G,][A,,F,][A,,E,] | B,2 A,4 F,A, | [D,F,]2 [E,G,]2 [F,A,]2 A,^G, x | %10
 [C,A,]3 [C,A,] [A,,A,]2 [G,C]2 | [F,D]3 [D,A,] [G,,B,][G,,B,][A,,G,][A,,A,] | [B,,F,]6 [G,,G,]2 | %13
 [F,D]3 [D,A,] [G,,B,][G,,B,][A,,G,][A,,A,] | [D,F,]6 |] %15
V:4
 D,2 | x6 D,2 x | x8 | x8 | x8 | x8 | x8 | A,2 A, x5 | D,6 D,2 | x6 D,2 x | x8 | x8 | x8 | x8 | %14
 x6 |] %15

